svgs/1F923.svg

<svg xmlns="http://www.w3.org/2000/svg" xmlns:xlink="http://www.w3.org/1999/xlink" preserveAspectRatio="none" viewBox="0 0 72 72"><defs><path id="a" fill="#FCC21B" d="M35.9 5.45q-22.3 0-31.1 20.6Q.05 37.45.05 52.55q0 5.85 10.5 9.95 10.55 4.15 25.35 4.15t25.35-4.15q10.55-4.15 10.55-9.95 0-15.15-4.8-26.5-8.8-20.6-31.1-20.6z"/><path id="b" fill="#ED6C30" d="M52.7 48.65q2.95-3.1 3.9-6.6 1.05-3.6-.75-4.8-1.15-.8-3.1-.65l-3.25.65Q43.4 38.5 36 38.5q-7.45 0-13.5-1.25l-3.25-.65q-2-.15-3.15.65-1.75 1.15-.7 4.8.95 3.55 3.85 6.6Q21.9 51.3 25.1 53q5.05 2.6 10.9 2.6 5.85 0 10.9-2.6 3.3-1.75 5.8-4.35z"/><path id="c" fill="#40C0E7" d="M59.9 32.4l-1.2-.4-1.25-.25q-1.2.1-.8 1.75l1.55 7.55q.1.85.75 2.65.85 2.25 1.35 3 .6.95 2 1.7 1.3.7 2.65.8 1.85.1 3.5-1.2 1.6-1.3 1.9-3.4.25-2.8-1.1-5.25Q68 37 65.55 35.3q-2.9-1.95-5.65-2.9z"/><path id="d" fill="#40C0E7" d="M13.3 32l-1.25.4q-2.6.9-5.65 2.9-2.35 1.6-3.65 4.05-1.4 2.55-1.1 5.25.2 2 1.9 3.4 1.6 1.3 3.45 1.2 1.45-.1 2.65-.8 1.5-.8 2.05-1.7.6-1.05 1.35-3 .7-1.8.75-2.65l1.5-7.55q.45-1.65-.7-1.75-.4 0-1.3.25z"/><path id="e" fill="#2F2F2F" d="M56.1 26.85q.35-.4.25-1.1-.1-.65-.6-1-.5-.3-1.05-.25-2.2.35-4.5.95-4.85 1.25-8.05 3.2-.45.3-.6.7-.15.6-.05.95.15.55.55.8.4.3.9.3l3.6.2q4.15.45 6.85 1.7l.3.1q.55.1 1-.15.4-.2.65-.7.25-.65.05-1.15-.2-.55-.8-.8-2.7-1.25-5.75-1.65 2.95-1 6.25-1.5.65-.1 1-.6z"/><path id="f" fill="#2F2F2F" d="M15.7 25.75q-.1.65.3 1.1.3.5.95.6.35 0 1.9.35 2.05.4 4.35 1.15-3.05.4-5.75 1.65-.55.25-.75.8-.25.6 0 1.15.25.5.7.7.4.25.9.15l.35-.1q2.7-1.25 6.85-1.7 1.85-.2 3.6-.2.55 0 .9-.3.4-.25.55-.8.15-.45-.05-.95-.15-.45-.65-.7-3.05-1.9-8-3.2l-4.5-.95q-.55-.05-1.1.25-.45.4-.55 1z"/></defs><use transform="matrix(.83717 -.4829 .48332 .83641 -15.3 21.05)" xlink:href="#a"/><use transform="matrix(.83717 -.4829 .48332 .83641 -16.9 18.2)" xlink:href="#b"/><use transform="matrix(.83717 -.4829 .48332 .83641 -18.5 19.1)" xlink:href="#c"/><use transform="matrix(.83717 -.4829 .48332 .83641 -15.25 17.15)" xlink:href="#d"/><use transform="matrix(.83717 -.4829 .48332 .83641 -16.9 18.2)" xlink:href="#e"/><use transform="matrix(.83717 -.4829 .48332 .83641 -16.9 18.2)" xlink:href="#f"/></svg>

<svg xmlns="http://www.w3.org/2000/svg" version="1.1" xmlns:xlink="http://www.w3.org/1999/xlink" preserveAspectRatio="none" x="0px" y="0px" width="72px" height="72px" viewBox="0 0 72 72">
<defs>
<g id="Layer0_0_MEMBER_0_MEMBER_0_MEMBER_0_MEMBER_0_FILL">
<path fill="#FCC21B" stroke="none" d="
M 35.9 5.45
Q 13.6 5.45 4.8 26.05 0.05 37.45 0.05 52.55 0.05 58.4 10.55 62.5 21.1 66.65 35.9 66.65 50.7 66.65 61.25 62.5 71.8 58.35 71.8 52.55 71.8 37.4 67 26.05 58.2 5.45 35.9 5.45 Z"/>
</g>

<g id="Layer0_0_MEMBER_1_MEMBER_0_MEMBER_0_MEMBER_0_FILL">
<path fill="#ED6C30" stroke="none" d="
M 52.7 48.65
Q 55.65 45.55 56.6 42.05 57.65 38.45 55.85 37.25 54.7 36.45 52.75 36.6
L 49.5 37.25
Q 43.4 38.5 36 38.5 28.55 38.5 22.5 37.25
L 19.25 36.6
Q 17.25 36.45 16.1 37.25 14.35 38.4 15.4 42.05 16.35 45.6 19.25 48.65 21.9 51.3 25.1 53 30.15 55.6 36 55.6 41.85 55.6 46.9 53 50.2 51.25 52.7 48.65 Z"/>
</g>

<g id="Layer0_0_MEMBER_2_MEMBER_0_FILL">
<path fill="#40C0E7" stroke="none" d="
M 59.9 32.4
L 58.7 32 57.45 31.75
Q 56.25 31.85 56.65 33.5
L 58.2 41.05
Q 58.3 41.9 58.95 43.7 59.8 45.95 60.3 46.7 60.9 47.65 62.3 48.4 63.6 49.1 64.95 49.2 66.8 49.3 68.45 48 70.05 46.7 70.35 44.6 70.6 41.8 69.25 39.35 68 37 65.55 35.3 62.65 33.35 59.9 32.4 Z"/>
</g>

<g id="Layer0_0_MEMBER_3_MEMBER_0_FILL">
<path fill="#40C0E7" stroke="none" d="
M 13.3 32
L 12.05 32.4
Q 9.45 33.3 6.4 35.3 4.05 36.9 2.75 39.35 1.35 41.9 1.65 44.6 1.85 46.6 3.55 48 5.15 49.3 7 49.2 8.45 49.1 9.65 48.4 11.15 47.6 11.7 46.7 12.3 45.65 13.05 43.7 13.75 41.9 13.8 41.05
L 15.3 33.5
Q 15.75 31.85 14.6 31.75 14.2 31.75 13.3 32 Z"/>
</g>

<g id="Layer0_0_MEMBER_4_MEMBER_0_MEMBER_0_MEMBER_0_FILL">
<path fill="#2F2F2F" stroke="none" d="
M 56.1 26.85
Q 56.45 26.45 56.35 25.75 56.25 25.1 55.75 24.75 55.25 24.45 54.7 24.5 52.5 24.85 50.2 25.45 45.35 26.7 42.15 28.65 41.7 28.95 41.55 29.35 41.4 29.95 41.5 30.3 41.65 30.85 42.05 31.1 42.45 31.4 42.95 31.4
L 46.55 31.6
Q 50.7 32.05 53.4 33.3
L 53.7 33.4
Q 54.25 33.5 54.7 33.25 55.1 33.05 55.35 32.55 55.6 31.9 55.4 31.4 55.2 30.85 54.6 30.6 51.9 29.35 48.85 28.95 51.8 27.95 55.1 27.45 55.75 27.35 56.1 26.85 Z"/>
</g>

<g id="Layer0_0_MEMBER_5_MEMBER_0_MEMBER_0_MEMBER_0_FILL">
<path fill="#2F2F2F" stroke="none" d="
M 15.7 25.75
Q 15.6 26.4 16 26.85 16.3 27.35 16.95 27.45 17.3 27.45 18.85 27.8 20.9 28.2 23.2 28.95 20.15 29.35 17.45 30.6 16.9 30.85 16.7 31.4 16.45 32 16.7 32.55 16.95 33.05 17.4 33.25 17.8 33.5 18.3 33.4
L 18.65 33.3
Q 21.35 32.05 25.5 31.6 27.35 31.4 29.1 31.4 29.65 31.4 30 31.1 30.4 30.85 30.55 30.3 30.7 29.85 30.5 29.35 30.35 28.9 29.85 28.65 26.8 26.75 21.85 25.45
L 17.35 24.5
Q 16.8 24.45 16.25 24.75 15.8 25.15 15.7 25.75 Z"/>
</g>
</defs>

<g id="Layer_1">
<g transform="matrix( 0.8371734619140625, -0.4828948974609375, 0.4833221435546875, 0.8364105224609375, -15.3,21.05) ">
<use xlink:href="#Layer0_0_MEMBER_0_MEMBER_0_MEMBER_0_MEMBER_0_FILL"/>
</g>

<g transform="matrix( 0.8371734619140625, -0.4828948974609375, 0.4833221435546875, 0.8364105224609375, -16.9,18.2) ">
<use xlink:href="#Layer0_0_MEMBER_1_MEMBER_0_MEMBER_0_MEMBER_0_FILL"/>
</g>

<g transform="matrix( 0.8371734619140625, -0.4828948974609375, 0.4833221435546875, 0.8364105224609375, -18.5,19.1) ">
<use xlink:href="#Layer0_0_MEMBER_2_MEMBER_0_FILL"/>
</g>

<g transform="matrix( 0.8371734619140625, -0.4828948974609375, 0.4833221435546875, 0.8364105224609375, -15.25,17.15) ">
<use xlink:href="#Layer0_0_MEMBER_3_MEMBER_0_FILL"/>
</g>

<g transform="matrix( 0.8371734619140625, -0.4828948974609375, 0.4833221435546875, 0.8364105224609375, -16.9,18.2) ">
<use xlink:href="#Layer0_0_MEMBER_4_MEMBER_0_MEMBER_0_MEMBER_0_FILL"/>
</g>

<g transform="matrix( 0.8371734619140625, -0.4828948974609375, 0.4833221435546875, 0.8364105224609375, -16.9,18.2) ">
<use xlink:href="#Layer0_0_MEMBER_5_MEMBER_0_MEMBER_0_MEMBER_0_FILL"/>
</g>
</g>
</svg>
